@themes/theme-zeno/src/img/logo-packer.svg

<svg width="180" height="61" viewBox="0 0 180 61" fill="none" xmlns="http://www.w3.org/2000/svg">
<g clip-path="url(#clip0)">
<path d="M61.23 7.86V4.63H58.23V7.86H56.77V0.11H58.28V3.36H61.28V0.11H62.79V7.86H61.23ZM68.23 7.86H67.03L67 7.48C66.469 7.82094 65.851 8.00149 65.22 8C64.16 8 63.7 7.3 63.7 6.34C63.7 5.2 64.21 4.77 65.4 4.77H66.8V4.15C66.8 3.53 66.62 3.31 65.69 3.31C65.1491 3.31507 64.61 3.372 64.08 3.48L63.9 2.41C64.5528 2.23813 65.2249 2.15075 65.9 2.15C67.73 2.15 68.27 2.77 68.27 4.15L68.23 7.86ZM66.8 5.75H65.72C65.24 5.75 65.11 5.88 65.11 6.3C65.11 6.72 65.24 6.86 65.7 6.86C66.0848 6.85407 66.4623 6.75454 66.8 6.57V5.75ZM71.31 8C70.6315 7.98919 69.958 7.88143 69.31 7.68L69.51 6.61C70.0739 6.76436 70.6554 6.84503 71.24 6.85C71.89 6.85 71.98 6.71 71.98 6.29C71.98 5.87 71.91 5.77 70.98 5.56C69.56 5.23 69.39 4.88 69.39 3.8C69.39 2.72 69.9 2.18 71.57 2.18C72.1589 2.18205 72.7458 2.24912 73.32 2.38L73.18 3.49C72.6514 3.39646 72.1166 3.34298 71.58 3.33C70.95 3.33 70.84 3.47 70.84 3.81C70.84 4.15 70.84 4.29 71.66 4.49C73.29 4.9 73.44 5.11 73.44 6.26C73.44 7.41 73.07 8 71.31 8ZM78 7.86V4C78 3.7 77.87 3.55 77.53 3.55C76.9956 3.59942 76.476 3.75226 76 4V7.86H74.54V0L76 0.22V2.69C76.6646 2.36346 77.3901 2.17952 78.13 2.15C79.13 2.15 79.45 2.8 79.45 3.8V7.86H78ZM80.68 1.48V0.11H82.14V1.48H80.68ZM80.68 7.86V2.27H82.14V7.86H80.68ZM83.3 2.32C83.3 0.92 84.15 0.1 86.13 0.1C86.8572 0.0992256 87.5821 0.183124 88.29 0.35L88.12 1.6C87.4764 1.48118 86.8243 1.4143 86.17 1.4C85.17 1.4 84.8 1.74 84.8 2.56V5.5C84.8 6.31 85.13 6.66 86.17 6.66C86.8243 6.6457 87.4764 6.57882 88.12 6.46L88.29 7.71C87.5837 7.89036 86.8588 7.98768 86.13 8C84.13 8 83.3 7.19 83.3 5.78V2.32ZM91.51 8C89.52 8 89 6.92 89 5.77V4.36C89 3.21 89.54 2.16 91.53 2.16C93.52 2.16 94 3.21 94 4.36V5.77C94 6.92 93.51 8 91.51 8ZM91.51 3.37C90.73 3.37 90.43 3.7 90.43 4.37V5.87C90.43 6.5 90.73 6.87 91.51 6.87C92.29 6.87 92.59 6.54 92.59 5.87V4.31C92.59 3.68 92.29 3.35 91.51 3.35V3.37ZM98.15 3.46C97.6171 3.69096 97.1023 3.96173 96.61 4.27V7.87H95.15V2.27H96.38L96.48 2.89C96.953 2.57948 97.4638 2.33079 98 2.15L98.15 3.46ZM104 6C104.044 6.26557 104.026 6.53776 103.946 6.79491C103.866 7.05206 103.728 7.28709 103.541 7.48128C103.355 7.67548 103.126 7.82349 102.872 7.91354C102.618 8.00359 102.347 8.0332 102.08 8C101.559 7.99504 101.041 7.94147 100.53 7.84V10.1L99 10.31V2.31H100.16L100.3 2.78C100.836 2.39543 101.48 2.18905 102.14 2.19C103.31 2.19 103.93 2.86 103.93 4.13L104 6ZM100.52 6.63C100.944 6.72153 101.376 6.77177 101.81 6.78C102.34 6.78 102.54 6.54 102.54 6.03V4.03C102.54 3.57 102.36 3.32 101.82 3.32C101.341 3.33752 100.883 3.51737 100.52 3.83V6.63Z" fill="black"/>
<path fill-rule="evenodd" clip-rule="evenodd" d="M0 7.33997L19.45 18.58V60.01L0 48.77V7.33997Z" fill="#1DAEFF"/>
<path d="M29.07 12.19L7.94 0V8.47L22.31 16.77V42.13L29.07 46C33.26 48.42 36.68 47 36.68 42.78V24.19C36.68 20 33.26 14.6 29.07 12.19Z" fill="#1D94DD"/>
<path d="M56.77 14.1H69.25C76.65 14.1 79.38 17.1 79.38 22.75V27.12C79.38 32.69 76.38 35.72 68.96 35.72H62.82V46.09H56.77V14.1ZM68.92 19.43H62.82V30.43H68.92C72.33 30.43 73.34 29.18 73.34 26.54V23.22C73.34 20.58 72.23 19.43 68.92 19.43Z" fill="black"/>
<path d="M99.85 46.09H95L94.57 44.51C92.4873 45.8653 90.0549 46.5846 87.57 46.58C83.3 46.58 81.47 43.65 81.47 39.58C81.47 34.82 83.54 33 88.29 33H94V30.57C94 27.98 93.28 27.06 89.53 27.06C87.3514 27.0834 85.1806 27.3246 83.05 27.78L82.33 23.31C84.9362 22.5906 87.6264 22.2207 90.33 22.21C97.68 22.21 99.84 24.8 99.84 30.66L99.85 46.09ZM94 37.25H89.67C87.75 37.25 87.22 37.78 87.22 39.56C87.22 41.34 87.75 41.91 89.57 41.91C91.1242 41.8898 92.6481 41.477 94 40.71V37.25Z" fill="black"/>
<path d="M103.35 37.59V31.2C103.35 24.91 106.09 22.2 113.44 22.2C115.378 22.21 117.305 22.4997 119.16 23.0599L118.44 27.86C116.852 27.4679 115.225 27.2599 113.59 27.24C110.23 27.24 109.22 28.2399 109.22 31.1299V37.61C109.22 40.49 110.22 41.5 113.59 41.5C115.226 41.4946 116.855 41.2863 118.44 40.88L119.16 45.68C117.307 46.2525 115.379 46.5424 113.44 46.54C106.09 46.57 103.35 43.88 103.35 37.59Z" fill="black"/>
<path d="M122.85 46.0899V13.1399L128.71 12.3199V46.0899H122.85ZM142.74 22.6999L135.87 34.2799L143 46.0899H136.56L129.5 34.2699L136.18 22.6899L142.74 22.6999Z" fill="black"/>
<path d="M154.94 41.76C157.368 41.75 159.781 41.3793 162.1 40.66L163.01 45.08C160.252 46.0749 157.342 46.5792 154.41 46.57C147.06 46.57 144.52 43.16 144.52 37.57V31.37C144.52 26.42 146.73 22.24 154.22 22.24C161.71 22.24 163.39 26.61 163.39 31.65V36.65H150.39V37.85C150.37 40.66 151.38 41.76 154.94 41.76ZM150.38 31.91H157.82V30.77C157.82 28.56 157.15 27.02 154.27 27.02C151.39 27.02 150.38 28.56 150.38 30.77V31.91Z" fill="black"/>
<path d="M179 27.6C176.849 28.5753 174.776 29.7153 172.8 31.01V46.09H167V22.7H171.95L172.33 25.29C174.236 24.0011 176.304 22.9689 178.48 22.22L179 27.6Z" fill="black"/>
</g>
<defs>
<clipPath id="clip0">
<rect width="179.05" height="60.01" fill="white"/>
</clipPath>
</defs>
</svg>

<svg width="180" height="61" fill="none" xmlns="http://www.w3.org/2000/svg"><g clip-path="url(#clip0)"><path d="M61.23 7.86V4.63h-3v3.23h-1.46V.11h1.51v3.25h3V.11h1.51v7.75h-1.56zm7 0h-1.2L67 7.48a3.28 3.28 0 01-1.78.52c-1.06 0-1.52-.7-1.52-1.66 0-1.14.51-1.57 1.7-1.57h1.4v-.62c0-.62-.18-.84-1.11-.84a8.46 8.46 0 00-1.61.17l-.18-1.07a7.89 7.89 0 012-.26c1.83 0 2.37.62 2.37 2l-.04 3.71zM66.8 5.75h-1.08c-.48 0-.61.13-.61.55 0 .42.13.56.59.56a2.37 2.37 0 001.1-.29v-.82zM71.31 8a7.12 7.12 0 01-2-.32l.2-1.07a6.77 6.77 0 001.73.24c.65 0 .74-.14.74-.56 0-.42-.07-.52-1-.73-1.42-.33-1.59-.68-1.59-1.76s.51-1.62 2.18-1.62a8 8 0 011.75.2l-.14 1.11a10.661 10.661 0 00-1.6-.16c-.63 0-.74.14-.74.48 0 .34 0 .48.82.68 1.63.41 1.78.62 1.78 1.77S73.07 8 71.31 8zM78 7.86V4c0-.3-.13-.45-.47-.45A4.14 4.14 0 0076 4v3.86h-1.46V0L76 .22v2.47a5.31 5.31 0 012.13-.54c1 0 1.32.65 1.32 1.65v4.06H78zm2.68-6.38V.11h1.46v1.37h-1.46zm0 6.38V2.27h1.46v5.59h-1.46zm2.62-5.54c0-1.4.85-2.22 2.83-2.22a9.37 9.37 0 012.16.25l-.17 1.25a12.21 12.21 0 00-1.95-.2c-1 0-1.37.34-1.37 1.16V5.5c0 .81.33 1.16 1.37 1.16a12.21 12.21 0 001.95-.2l.17 1.25a9.37 9.37 0 01-2.16.29c-2 0-2.83-.81-2.83-2.22V2.32zM91.51 8C89.52 8 89 6.92 89 5.77V4.36c0-1.15.54-2.2 2.53-2.2 1.99 0 2.47 1.05 2.47 2.2v1.41C94 6.92 93.51 8 91.51 8zm0-4.63c-.78 0-1.08.33-1.08 1v1.5c0 .63.3 1 1.08 1s1.08-.33 1.08-1V4.31c0-.63-.3-.96-1.08-.96v.02zm6.64.09c-.533.231-1.048.502-1.54.81v3.6h-1.46v-5.6h1.23l.1.62c.473-.31.984-.56 1.52-.74l.15 1.31zM104 6a1.726 1.726 0 01-1.128 1.914 1.73 1.73 0 01-.792.086 8.36 8.36 0 01-1.55-.16v2.26l-1.53.21v-8h1.16l.14.47a3.15 3.15 0 011.84-.59c1.17 0 1.79.67 1.79 1.94L104 6zm-3.48.63c.424.092.856.142 1.29.15.53 0 .73-.24.73-.75v-2c0-.46-.18-.71-.72-.71a2.11 2.11 0 00-1.3.51v2.8z" fill="#000"/><path fill-rule="evenodd" clip-rule="evenodd" d="M0 7.34l19.45 11.24v41.43L0 48.77V7.34z" fill="#1DAEFF"/><path d="M29.07 12.19L7.94 0v8.47l14.37 8.3v25.36L29.07 46c4.19 2.42 7.61 1 7.61-3.22V24.19c0-4.19-3.42-9.59-7.61-12z" fill="#1D94DD"/><path d="M56.77 14.1h12.48c7.4 0 10.13 3 10.13 8.65v4.37c0 5.57-3 8.6-10.42 8.6h-6.14v10.37h-6.05V14.1zm12.15 5.33h-6.1v11h6.1c3.41 0 4.42-1.25 4.42-3.89v-3.32c0-2.64-1.11-3.79-4.42-3.79zM99.85 46.09H95l-.43-1.58a12.79 12.79 0 01-7 2.07c-4.27 0-6.1-2.93-6.1-7 0-4.76 2.07-6.58 6.82-6.58H94v-2.43c0-2.59-.72-3.51-4.47-3.51a32.68 32.68 0 00-6.48.72l-.72-4.47a30.52 30.52 0 018-1.1c7.35 0 9.51 2.59 9.51 8.45l.01 15.43zM94 37.25h-4.33c-1.92 0-2.45.53-2.45 2.31s.53 2.35 2.35 2.35a9.22 9.22 0 004.43-1.2v-3.46zM103.35 37.59V31.2c0-6.29 2.74-9 10.09-9 1.938.01 3.865.3 5.72.86l-.72 4.8a21.312 21.312 0 00-4.85-.62c-3.36 0-4.37 1-4.37 3.89v6.48c0 2.88 1 3.89 4.37 3.89a19.795 19.795 0 004.85-.62l.72 4.8a19.295 19.295 0 01-5.72.86c-7.35.03-10.09-2.66-10.09-8.95zM122.85 46.09V13.14l5.86-.82v33.77h-5.86zm19.89-23.39l-6.87 11.58L143 46.09h-6.44l-7.06-11.82 6.68-11.58 6.56.01zM154.94 41.76a24.51 24.51 0 007.16-1.1l.91 4.42a25.11 25.11 0 01-8.6 1.49c-7.35 0-9.89-3.41-9.89-9v-6.2c0-4.95 2.21-9.13 9.7-9.13 7.49 0 9.17 4.37 9.17 9.41v5h-13v1.2c-.02 2.81.99 3.91 4.55 3.91zm-4.56-9.85h7.44v-1.14c0-2.21-.67-3.75-3.55-3.75s-3.89 1.54-3.89 3.75v1.14zM179 27.6a45.893 45.893 0 00-6.2 3.41v15.08H167V22.7h4.95l.38 2.59a26.2 26.2 0 016.15-3.07l.52 5.38z" fill="#000"/></g><defs><clipPath id="clip0"><path fill="#fff" d="M0 0h179.05v60.01H0z"/></clipPath></defs></svg>
